src/assets/img/shape-pill-2.svg

<svg fill="none" height="266" viewBox="0 0 192 266" width="192" xmlns="http://www.w3.org/2000/svg"><path d="m148.301 245.71c-5.691 2.672-11.834 4.234-18.08 4.597-6.247.363-12.473-.481-18.324-2.483s-11.213-5.123-15.7781-9.185c-4.5654-4.062-8.2454-8.985-10.83-14.488l-65.6725-140.8694c-5.2026-11.1597-5.6089-24-1.1295-35.6963 4.4794-11.6962 13.4775-21.2903 25.0149-26.6716 11.5374-5.3813 24.669-6.109 36.506-2.023s21.4092 12.6509 26.6122 23.8107l65.673 140.8686c2.553 5.518 3.958 11.503 4.134 17.612.177 6.109-.879 12.223-3.107 17.993-2.228 5.771-5.584 11.084-9.877 15.636-4.293 4.553-9.438 8.256-15.142 10.899z" fill="#ffc09f"/></svg>

<svg width="192" height="266" viewBox="0 0 192 266" fill="none" xmlns="http://www.w3.org/2000/svg">
<path d="M148.301 245.71C142.61 248.382 136.467 249.944 130.221 250.307C123.974 250.67 117.748 249.826 111.897 247.824C106.046 245.822 100.684 242.701 96.1189 238.639C91.5535 234.577 87.8735 229.654 85.2889 224.151L19.6164 83.2816C14.4138 72.1219 14.0075 59.2816 18.4869 47.5853C22.9663 35.8891 31.9644 26.295 43.5018 20.9137V20.9137C55.0392 15.5324 68.1708 14.8047 80.0078 18.8907C91.8448 22.9767 101.417 31.5416 106.62 42.7014L172.293 183.57C174.846 189.088 176.251 195.073 176.427 201.182C176.604 207.291 175.548 213.405 173.32 219.175C171.092 224.946 167.736 230.259 163.443 234.811C159.15 239.364 154.005 243.067 148.301 245.71Z" fill="#FFC09F"/>
</svg>
